packages/core/src/svgs/tokens/branded/BAL.svg

<svg width="24" height="24" viewBox="0 0 24 24" fill="none" xmlns="http://www.w3.org/2000/svg">
<path d="M16.043 13.7218C19.5518 14.2406 22 15.4135 22 16.7782C22 18.6236 17.5229 20.1194 12 20.1194C6.47705 20.1194 2 18.6236 2 16.7782C2 15.4135 4.44823 14.2399 7.95706 13.7211C9.16235 13.9658 10.5383 14.1047 12 14.1047C13.4247 14.1047 14.7689 13.973 15.9524 13.7394L16.043 13.7218ZM14.5306 8.22764C17.7089 8.58117 20.0001 9.58294 20.0001 10.7641C20.0001 12.2405 16.4183 13.437 12 13.437C7.58176 13.437 4 12.24 4 10.7641C4 9.58294 6.29118 8.58117 9.46877 8.22705C10.2477 8.3547 11.1024 8.4247 12 8.4247C12.8658 8.4247 13.6924 8.36 14.4488 8.24058L14.5306 8.22764Z" fill="#21222C"/>
<path d="M12 7.89002C15.3135 7.89002 18 6.99297 18 5.88532C18 4.77826 15.3135 3.88062 12 3.88062C8.68648 3.88062 6 4.77826 6 5.88532C6 6.99297 8.68648 7.89002 12 7.89002Z" fill="#21222C"/>
</svg>

<svg xmlns="http://www.w3.org/2000/svg" width="24" height="24" fill="none" viewBox="0 0 24 24">
    <path fill="#21222C" d="M16.043 13.722C19.552 14.24 22 15.414 22 16.778c0 1.846-4.477 3.341-10 3.341S2 18.624 2 16.78c0-1.365 2.448-2.54 5.957-3.058a20.5 20.5 0 0 0 4.043.384c1.425 0 2.769-.132 3.952-.366zm-1.512-5.494C17.709 8.58 20 9.583 20 10.764c0 1.477-3.583 2.673-8.001 2.673s-8-1.197-8-2.673c0-1.181 2.291-2.183 5.469-2.537.779.128 1.633.198 2.531.198.866 0 1.692-.065 2.449-.184zM12 7.89c3.313 0 6-.897 6-2.005s-2.687-2.004-6-2.004-6 .897-6 2.004C6 6.993 8.686 7.89 12 7.89"/>
</svg>
